desktop/renderer-app/src/assets/image/no-camera.svg

<?xml version="1.0" encoding="UTF-8"?>
<svg width="110px" height="110px" viewBox="0 0 110 110" version="1.1" xmlns="http://www.w3.org/2000/svg" xmlns:xlink="http://www.w3.org/1999/xlink">
    <title>cameraHide</title>
    <g id="2.1" stroke="none" stroke-width="1" fill="none" fill-rule="evenodd" fill-opacity="0.0811571241">
        <g id="组件规范" transform="translate(-473.000000, -1241.000000)" fill="#FFFFFF" fill-rule="nonzero">
            <g id="编组-4备份-3" transform="translate(376.000000, 1188.000000)">
                <g id="位图备份-2" transform="translate(8.000000, 0.000000)">
                    <g id="cameraHide" transform="translate(89.000000, 53.000000)">
                        <path d="M78.6361746,35.9353492 C81.0901775,40.0505231 82.5,44.8606207 82.5,50 C82.5,64.3448207 71.5166875,76.1243513 57.5008374,77.387817 L57.5,82.5 L65,82.5 C66.3807119,82.5 67.5,83.6192881 67.5,85 C67.5,86.2272994 66.6156242,87.2480419 65.4493782,87.4597217 L65,87.5 L45,87.5 C43.6192881,87.5 42.5,86.3807119 42.5,85 C42.5,83.7727006 43.3843758,82.7519581 44.5506218,82.5402783 L45,82.5 L52.5,82.5 L52.500163,77.3879071 C48.3018508,77.009602 44.3756087,75.6877517 40.9351156,73.6360353 L44.6097325,69.9624779 C47.7178615,71.5835381 51.2519052,72.5 55,72.5 C67.4264069,72.5 77.5,62.4264069 77.5,50 C77.5,46.2519052 76.5835381,42.7178615 74.9624779,39.6097325 L78.6361746,35.9353492 Z M55,22.5 C61.4291118,22.5 67.3429378,24.7062009 72.0257021,28.4028267 L76.2132034,24.2157288 C77.1895142,23.239418 78.7724266,23.239418 79.7487373,24.2157288 C80.6165691,25.0835605 80.7129949,26.4306825 80.0380146,27.4050232 L79.7487373,27.7512627 L51.0950486,56.4044942 L51.0950486,56.4044942 L47.4990805,60.0002247 L40.3890683,67.1111019 L40.3890683,67.1111019 L36.8444121,70.6553596 L30.2512627,77.2487373 C29.2749519,78.2250481 27.6920395,78.2250481 26.7157288,77.2487373 C25.847897,76.3809056 25.7514712,75.0337836 26.4264515,74.0594429 L26.7157288,73.7132034 L33.402918,67.0258177 C29.7935651,62.453658 27.6050691,56.7078883 27.5036842,50.4547628 L27.5,50 C27.5,34.8121694 39.8121694,22.5 55,22.5 Z M55,27.5 C42.5735931,27.5 32.5,37.5735931 32.5,50 C32.5,55.0475796 34.1621095,59.7069528 36.9688718,63.4606629 L44.1746804,56.2541521 C43.1096312,54.4146305 42.5,52.2785088 42.5,50 C42.5,43.0964406 48.0964406,37.5 55,37.5 C57.2783485,37.5 59.4143301,38.1095454 61.253764,39.1744557 L68.4606629,31.9688718 C64.7069528,29.1621095 60.0475796,27.5 55,27.5 Z M67.2189671,47.3519685 C67.403063,48.2054861 67.5,49.0914226 67.5,50 C67.5,56.9035594 61.9035594,62.5 55,62.5 C54.0914226,62.5 53.2054861,62.403063 52.3519685,62.2189671 L57.4981343,57.0738949 C59.6306697,56.3207895 61.3207895,54.6306697 62.0738949,52.4981343 L67.2189671,47.3519685 Z M55,42.5 C50.8578644,42.5 47.5,45.8578644 47.5,50 C47.5,50.8772394 47.6506089,51.7193022 47.9273801,52.5017416 L57.5007333,42.9270235 C56.7185788,42.6504796 55.8768626,42.5 55,42.5 Z" id="形状结合"></path>
                    </g>
                </g>
            </g>
        </g>
    </g>
</svg>

<svg width="110" height="110" xmlns="http://www.w3.org/2000/svg"><path d="M78.636 35.935A27.372 27.372 0 0 1 82.5 50c0 14.345-10.983 26.124-25 27.388V82.5H65a2.5 2.5 0 0 1 .45 4.96l-.45.04H45a2.5 2.5 0 0 1-.45-4.96l.45-.04h7.5v-5.112a27.33 27.33 0 0 1-11.565-3.752l3.675-3.674A22.403 22.403 0 0 0 55 72.5c12.426 0 22.5-10.074 22.5-22.5a22.39 22.39 0 0 0-2.538-10.39l3.674-3.675ZM55 22.5a27.38 27.38 0 0 1 17.026 5.903l4.187-4.187a2.5 2.5 0 0 1 3.825 3.189l-.29.346-28.653 28.653L47.499 60l-7.11 7.111-3.545 3.544-6.593 6.594a2.5 2.5 0 0 1-3.825-3.19l.29-.346 6.687-6.687a27.377 27.377 0 0 1-5.9-16.571L27.5 50c0-15.188 12.312-27.5 27.5-27.5Zm0 5c-12.426 0-22.5 10.074-22.5 22.5a22.4 22.4 0 0 0 4.469 13.46l7.206-7.206A12.442 12.442 0 0 1 42.5 50c0-6.904 5.596-12.5 12.5-12.5 2.278 0 4.414.61 6.254 1.674l7.207-7.205A22.4 22.4 0 0 0 55 27.5Zm12.219 19.852c.184.853.281 1.74.281 2.648 0 6.904-5.596 12.5-12.5 12.5-.909 0-1.795-.097-2.648-.281l5.146-5.145a7.521 7.521 0 0 0 4.576-4.576l5.145-5.146ZM55 42.5a7.5 7.5 0 0 0-7.073 10.002l9.574-9.575A7.488 7.488 0 0 0 55 42.5Z" fill="#FFF" fill-opacity=".081"/></svg>
